X:12024
T:Laura and Lensa
R:Polka
C:Trad. William Clarke of Feltwell MS 1858
O:England, Norfolk
Z:Paul Hardy's Session Tunebook 2015 (see www.paulhardy.net). Creative Commons cc by-nc-sa licenced.
M:2/2
L:1/8
Q:1/2=100
K:D
fe|"D" d2f2 d2f2|"A" e2a2 agfe|"D" d2f2 d2f2|"G" edcB A2Bc|
"D" d2f2 d2f2|"A" e2a2 agfe|"D" d2f2 "G"e2 ag|"D" f2 d2d2:|
|:A2|"A" e^ded efge|"D" f2d2 d2ef|"A" edcB ABcA|"D" d2f2 e2A2|
"A" e^ded efge|"D" f2d2 d2ef|"A" edcB ABcA|"D" d2 f2d2:|

